www/assets/icons/public.svg

<svg xmlns="http://www.w3.org/2000/svg" width="24" height="24" viewBox="0 0 24 24" fill='currentColor'><path d="M12 2C6.48 2 2 6.48 2 12s4.48 10 10 10 10-4.48 10-10S17.52 2 12 2m-1 17.93c-3.95-.49-7-3.85-7-7.93 0-.62.08-1.21.21-1.79L9 15v1c0 1.1.9 2 2 2zm6.9-2.54c-.26-.81-1-1.39-1.9-1.39h-1v-3c0-.55-.45-1-1-1H8v-2h2c.55 0 1-.45 1-1V7h2c1.1 0 2-.9 2-2v-.41c2.93 1.19 5 4.06 5 7.41 0 2.08-.8 3.97-2.1 5.39"/></svg>

<svg width="24" height="24" viewBox="0 0 24 24" xmlns="http://www.w3.org/2000/svg" fill='currentColor'><path d="M12 2C6.48 2 2 6.48 2 12C2 17.52 6.48 22 12 22C17.52 22 22 17.52 22 12C22 6.48 17.52 2 12 2ZM11 19.93C7.05 19.44 4 16.08 4 12C4 11.38 4.08 10.79 4.21 10.21L9 15V16C9 17.1 9.9 18 11 18V19.93ZM17.9 17.39C17.64 16.58 16.9 16 16 16H15V13C15 12.45 14.55 12 14 12H8V10H10C10.55 10 11 9.55 11 9V7H13C14.1 7 15 6.1 15 5V4.59C17.93 5.78 20 8.65 20 12C20 14.08 19.2 15.97 17.9 17.39Z"/></svg>
